X:2605
T:Lord Elgin's Reel
P:Lee Mills
C:Marshall
R:Strathspey (8x32)
B:RSCDS 26-5
Z:Anselm Lingnau <anselm@strathspey.org>
M:C
L:1/8
K:A
%
e|"A"c>A C>A "D"D>A "E7"E>B|"A"c>A C>A "E7"B<E E>e|\
  "A"d/c/B/A/ E>A "D"F>A "Bm"D>d|"A"c<e "E7"B>e "A"c<A Ae|
  "A"c>A C>A "D"D>A "E7"E>B|"A"c>A C>A "E7"B<E E>e|\
  "A"d/c/B/A/ E>A "D"F>A "Bm"D>d|"A"c<e "E7"B>e "A"c<A A||
e|"A"c>e a>e "D"f>e "A"a>c|"E7"d>B "A"c>A "E7"B<E E>e|\
  "A"c>e a>e "D"f>a "A"e>c|"Bm"d>B "E7"e>g "A"a<A A>d|
  "A"c>e a>e "D"f<a "A"a>c|"Bm"d>b "A"c>a "E7/G#"B<E E>e|\
  "A"d/c/B/A/ E>A "D"F>A "Bm"D>d|"E7"c<a B>e "A"c<A A2|]
